common/svg/users-filled-icon.svg

<svg fill="none" height="20" viewBox="0 0 20 20" width="20" xmlns="http://www.w3.org/2000/svg"><g fill="#000"><path d="m10.4868 13.9138c2.42-3.4386 2.8275-10.34769-2.61965-10.34769-5.44712 0-5.04378 6.90909-2.62375 10.34769-2.42003 0-5.2434 2.2606-5.2434 4.553h15.7302c.0041-2.2924-2.8234-4.553-5.2434-4.553z"/><path d="m14.7104 11.8471c2.4201-3.4386 2.8275-10.34768-2.6196-10.34768-1.3811 0-2.38616.44418-3.07754 1.16334 1.06214.18886 1.93924.6483 2.61474 1.33504.8866.90127 1.3345 2.10053 1.4915 3.32547.2442 1.90487-.187 4.06693-1.0374 5.83293.9454.2815 1.8432.7873 2.5808 1.41.5976.5044 1.1395 1.1292 1.5185 1.8339h3.7724c.0041-2.2924-2.8233-4.553-5.2434-4.553z"/></g></svg>

<svg width="20" height="20" viewBox="0 0 20 20" fill="none" xmlns="http://www.w3.org/2000/svg">
<path d="M10.4868 13.9138C12.9068 10.4752 13.3143 3.56611 7.86715 3.56611C2.42003 3.56611 2.82337 10.4752 5.2434 13.9138C2.82337 13.9138 0 16.1744 0 18.4668H15.7302C15.7343 16.1744 12.9068 13.9138 10.4868 13.9138Z" fill="black"/>
<path d="M14.7104 11.8471C17.1305 8.4085 17.5379 1.49942 12.0908 1.49942C10.7097 1.49942 9.70464 1.9436 9.01326 2.66276C10.0754 2.85162 10.9525 3.31106 11.628 3.9978C12.5146 4.89907 12.9625 6.09833 13.1195 7.32327C13.3637 9.22814 12.9325 11.3902 12.0821 13.1562C13.0275 13.4377 13.9253 13.9435 14.6629 14.5662C15.2605 15.0706 15.8024 15.6954 16.1814 16.4001H19.9538C19.9579 14.1077 17.1305 11.8471 14.7104 11.8471Z" fill="black"/>
</svg>
